X: 16
T:The Buffoon, Ilmington
M:4/4
L:1/8
A:Ilmington
P:A(AB2)4
K:G
P:A
G2B2 B2AB|c2c2 c2B2|F2B2 c2AG|F2d2 d4|
G2B2 B2AB|c2c2 c2B2|A2d2 dedc|B2G2 G4||
P:B
d2g2 g3 f|e2c2 c4  |A2a2 a3 g|f2d2 d4|
d2g2 g3 f|e2c2 c4  |A2d2 dedc|B2G2 G4||
